svg/comment.svg

<svg xmlns="http://www.w3.org/2000/svg" width="100" height="100" viewBox="0 0 100 100"><path d="M1.859 62.304v-48.451c0-3.167 1.108-5.851 3.325-8.051 2.216-2.201 4.908-3.302 8.075-3.302h74.529c3.166 0 5.852 1.101 8.051 3.302 2.202 2.201 3.302 4.884 3.302 8.051v48.451c0 3.167-1.1 5.859-3.302 8.075-2.199 2.217-4.885 3.324-8.051 3.324h-43.415l-23.704 24.797v-24.797h-7.41c-3.167 0-5.859-1.107-8.075-3.324-2.217-2.216-3.325-4.908-3.325-8.075zm15.532-40.946h66.217v-4.655h-66.217v4.655zm0 12.635h66.217v-4.655h-66.217v4.655zm0 12.636h66.217v-4.655h-66.217v4.655zm0 12.588h66.217v-4.608h-66.217v4.608z"/></svg>

<?xml version="1.0" encoding="utf-8"?>
<!-- Generator: Adobe Illustrator 13.0.0, SVG Export Plug-In . SVG Version: 6.00 Build 14948)  -->
<!DOCTYPE svg PUBLIC "-//W3C//DTD SVG 1.1//EN" "http://www.w3.org/Graphics/SVG/1.1/DTD/svg11.dtd">
<svg version="1.1" id="Layer_1" xmlns="http://www.w3.org/2000/svg" xmlns:xlink="http://www.w3.org/1999/xlink" x="0px" y="0px"
	 width="100px" height="100px" viewBox="0 0 100 100" enable-background="new 0 0 100 100" xml:space="preserve">
<g>
	<path d="M1.859,62.304V13.853c0-3.167,1.108-5.851,3.325-8.051C7.4,3.601,10.092,2.5,13.259,2.5h74.529
		c3.166,0,5.852,1.101,8.051,3.302c2.202,2.201,3.302,4.884,3.302,8.051v48.451c0,3.167-1.1,5.859-3.302,8.075
		c-2.199,2.217-4.885,3.324-8.051,3.324H44.373L20.669,98.5V73.703h-7.41c-3.167,0-5.859-1.107-8.075-3.324
		C2.967,68.163,1.859,65.471,1.859,62.304z M17.391,21.358h66.217v-4.655H17.391V21.358z M17.391,33.993h66.217v-4.655H17.391
		V33.993z M17.391,46.629h66.217v-4.655H17.391V46.629z M17.391,59.217h66.217v-4.608H17.391V59.217z"/>
</g>
</svg>
